material/.icons/material/newspaper-minus.svg

<svg xmlns="http://www.w3.org/2000/svg" viewBox="0 0 24 24"><path d="M22 17v2h-8v-2h8m-2-6V8H4v3h16m-7 2v1.68c-.63.95-1 2.09-1 3.32 0 1.09.29 2.12.8 3H4a2 2 0 01-2-2V3l1.67 1.67L5.33 3 7 4.67 8.67 3l1.66 1.67L12 3l1.67 1.67L15.33 3 17 4.67 18.67 3l1.66 1.67L22 3v10.5a6.137 6.137 0 00-4-1.5c-1.23 0-2.37.37-3.32 1H13m-2 6v-6H4v6h7z"/></svg>

<?xml version="1.0" encoding="UTF-8"?><!DOCTYPE svg PUBLIC "-//W3C//DTD SVG 1.1//EN" "http://www.w3.org/Graphics/SVG/1.1/DTD/svg11.dtd"><svg xmlns="http://www.w3.org/2000/svg" xmlns:xlink="http://www.w3.org/1999/xlink" version="1.1" id="mdi-newspaper-minus" width="24" height="24" viewBox="0 0 24 24"><path d="M22,17V19H14V17H22M20,11V8H4V11H20M13,13V14.68C12.37,15.63 12,16.77 12,18C12,19.09 12.29,20.12 12.8,21H4A2,2 0 0,1 2,19V3L3.67,4.67L5.33,3L7,4.67L8.67,3L10.33,4.67L12,3L13.67,4.67L15.33,3L17,4.67L18.67,3L20.33,4.67L22,3V13.5C20.93,12.58 19.53,12 18,12C16.77,12 15.63,12.37 14.68,13H13M11,19V13H4V19H11Z" /></svg>
